X:1
T:Title
%%score ( 1 2 ) { 3 | ( 4 5 ) }
L:1/8
Q:1/4=105
M:4/4
K:D
V:1 treble nm="Grand Piano, Soprano"
V:2 treble 
V:3 bass nm="Choir Pad, Joy to the World (Tillotson)"
V:4 bass 
V:5 bass 
V:1
 [A,DF]4 [A,CG]4 | [A,DA]2 [B,D^G]>[B,DG] [A,DA]2 D>E | F2 [FA]2 [FB]2 [F=c]2 | [Gc]6 z2 | %4
w: By~Ira~Bishop~Wilson *||||
 [CGc]4 [CGB]4 | [DFA]2 ^G>A d2 c>B | [FAc]2 [FAc]2 [=F^Gc]2 [FGc]2 | c6 z2 | %8
w: ||||
[M:2/4][Q:1/4=95] d2 c>B | A3 G | F2 E2 | D3 A | [GB]3 [GB] | [Ec]3 [Gc] | [Fd]3 [Fd] | %15
w: |||||||
 [Fd][Ac] [GB][FA] | [FA]>[EG] [DF][Fd] | [Fd][Ac] [GB][FA] | [FA]>[EG] [DF][DF] | %19
w: ||||
 [DF][DF] [DF][DF]/[EG]/ | [FA]3 [EG]/[DF]/ | [CE][CE] [CE][CE]/[DF]/ | [EG]3 [DF]/[CE]/ | %23
w: ||||
 D [Fd]2 [GB] | [FA]>[EG] [DF][EG] | [DF]2 [CE]2 | D4- | D4 |] %28
w: |||||
V:2
 x8 | x8 | x8 | x8 | x8 | x8 | x8 | [FA]2 [FA]2 [GA]ABc |[M:2/4] x4 | x4 | x4 | x4 | x4 | x4 | x4 | %15
 x4 | x4 | x4 | x4 | x4 | x4 | x4 | x4 | x4 | x4 | x4 | x4 | x4 |] %28
V:3
 D,2 B,2 E,2 B,2 | F,2 =F,2 ^F,2 z2 | D,2 D2 A,,2 D2 | E,2 E>E E2 E2 | E,2 B,2 E,2 B,2 | %5
 D,2 D2 B,,2 D2 | C,2 C2 C,2 C2 | F,2 F,2 E,A,B,[K:treble]C |[M:2/4] D2 C>B, | A,3[K:bass] E, | %10
 A,2 G,2 | F,3 D | D3 D | A,3 A, | A,3 A, | A,2 D2 | D2 A,A, | A,2 D2 | D2 A,A, | A,3 A, | %20
 A,A, A,A, | A,3 A, | A,A, A,A,/G,/ | F, A,2 D | D2 A,B, | .A,4 | F,4- | F,4 |] %28
V:4
 B,,,2 z2 E,,2 z2 | F,,2 =F,,2 ^F,,2 z2 | z2 [F,A,]2 z2 [F,A,]2 | z2 [A,C]>[A,C] [A,C]2 [A,C]2 | %4
 E,,2 z2 E,,2 z2 | D,,2 [F,A,]2 z2 [F,B,]2 | z2 [F,A,]2 z2 [^G,B,]2 | F,,2 F,,2 .E,,2 z2 | %8
[M:2/4] z4 | z4 | z4 | z2 z F, | G,3 G, | z4 | D,3 D, | D,2 D,2 | D,3 D, | D,2 D,2 | D,3 D, | %19
 D,3 D, | D,D, D,D, | A,,3 A,, | A,,A,, A,,A,, | D,3 D, | D,3 G,, | A,,2 z G, | D,4- | D,4 |] %28
V:5
 x8 | x8 | x8 | x8 | x8 | x8 | x8 | x8 |[M:2/4] x4 | x4 | x4 | x4 | x4 | x4 | x4 | x4 | x4 | x4 | %18
 x4 | x4 | x4 | x4 | x4 | x4 | x4 | z2 A,,2 | x4 | x4 |] %28

